www/assets/icons/credit_score.svg

<svg xmlns="http://www.w3.org/2000/svg" width="24" height="24" viewBox="0 0 24 24" fill='currentColor'><path d="M20 3H4c-1.11 0-1.99.89-1.99 2L2 17c0 1.11.89 2 2 2h5v-2H4v-6h18V5c0-1.11-.89-2-2-2m0 4H4V5h16zm-5.07 11.17-2.83-2.83-1.41 1.41L14.93 21 22 13.93l-1.41-1.41z"/></svg>

<svg width="24" height="24" viewBox="0 0 24 24" xmlns="http://www.w3.org/2000/svg" fill='currentColor'><path d="M20 3H4C2.89 3 2.01 3.89 2.01 5L2 17C2 18.11 2.89 19 4 19H9V17H4V11H22V5C22 3.89 21.11 3 20 3ZM20 7H4V5H20V7ZM14.93 18.17L12.1 15.34L10.69 16.75L14.93 21L22 13.93L20.59 12.52L14.93 18.17Z"/></svg>
